flags/language/en-ke.svg

<svg width="512" height="512" viewBox="0 0 512 512" fill="none" xmlns="http://www.w3.org/2000/svg">
<g clip-path="url(#clip0_53_7938)">
<rect x="-128" y="136" width="512" height="240" fill="var(--flag-palette-dark-red, #a2001d)"/>
<rect x="-128" y="344" width="512" height="168" fill="var(--flag-palette-dark-green, #496e2d)"/>
<rect x="-128" width="512" height="168" fill="var(--flag-palette-black, #333333)"/>
<path fill-rule="evenodd" clip-rule="evenodd" d="M384 160H-128L-128 192L384 192V160ZM-128 352L384 352V320L-128 320L-128 352Z" fill="var(--flag-palette-white, #eeeeee)"/>
<path d="M207.715 118.301L177.398 104.308L128 216.159L78.6022 104.308L48.2852 118.301L109.613 256L48.2852 393.699L78.6022 407.692L128 295.841L177.398 407.692L207.715 393.699L146.387 256L207.715 118.301Z" fill="var(--flag-palette-white, #eeeeee)"/>
<path d="M148.591 131.489C136.855 118.672 128 111.304 128 111.304C128 111.304 119.145 118.671 107.409 131.489V380.509C119.145 393.328 128 400.696 128 400.696C128 400.696 136.855 393.329 148.591 380.51V131.489Z" fill="var(--flag-palette-white, #eeeeee)"/>
<path d="M72.3481 179.244V332.756C84.7501 354.731 99.9291 372.743 111.305 384.685V127.316C99.9291 139.257 84.7491 157.27 72.3481 179.244Z" fill="var(--flag-palette-dark-red, #a2001d)"/>
<path d="M183.652 179.244C171.249 157.269 156.071 139.257 144.695 127.316V384.685C156.07 372.743 171.249 354.731 183.652 332.756V179.244Z" fill="var(--flag-palette-dark-red, #a2001d)"/>
<path d="M183.652 179.244V332.756C196.207 310.507 205.913 284.198 205.913 256.001C205.913 227.804 196.207 201.494 183.652 179.244Z" fill="var(--flag-palette-black, #333333)"/>
<path d="M72.3479 179.244V332.756C59.7929 310.507 50.0869 284.198 50.0869 256.001C50.0869 227.804 59.7929 201.494 72.3479 179.244Z" fill="var(--flag-palette-black, #333333)"/>
<rect x="256" y="136" width="512" height="240" fill="var(--flag-palette-dark-red, #a2001d)"/>
<rect x="256" y="344" width="512" height="168" fill="var(--flag-palette-dark-green, #496e2d)"/>
<rect x="256" width="512" height="168" fill="var(--flag-palette-black, #333333)"/>
<path fill-rule="evenodd" clip-rule="evenodd" d="M768 160L256 160L256 192L768 192V160ZM256 352L768 352V320L256 320L256 352Z" fill="var(--flag-palette-white, #eeeeee)"/>
<path d="M591.715 118.301L561.398 104.308L512 216.159L462.602 104.308L432.285 118.301L493.613 256L432.285 393.699L462.602 407.692L512 295.841L561.398 407.692L591.715 393.699L530.387 256L591.715 118.301Z" fill="var(--flag-palette-white, #eeeeee)"/>
<path d="M532.591 131.489C520.855 118.672 512 111.304 512 111.304C512 111.304 503.145 118.671 491.409 131.489V380.509C503.145 393.328 512 400.696 512 400.696C512 400.696 520.855 393.329 532.591 380.51V131.489Z" fill="var(--flag-palette-white, #eeeeee)"/>
<path d="M456.348 179.244V332.756C468.75 354.731 483.929 372.743 495.305 384.685V127.316C483.929 139.257 468.749 157.27 456.348 179.244Z" fill="var(--flag-palette-dark-red, #a2001d)"/>
<path d="M456.348 179.244V332.756C443.793 310.507 434.087 284.198 434.087 256.001C434.087 227.804 443.793 201.494 456.348 179.244Z" fill="var(--flag-palette-black, #333333)"/>
<path d="M512 0L512 512L16.0005 512L192.001 336L192.001 320L224.001 288L288.001 288L288.001 224L512 0Z" fill="var(--flag-palette-white, #eeeeee)"/>
<path d="M320.001 368L320.001 512L464 512L320.001 368Z" fill="var(--flag-palette-blue, #0052b4)"/>
<path d="M48.0005 512L192.001 368L192.001 512L48.0005 512Z" fill="var(--flag-palette-blue, #0052b4)"/>
<path d="M368.001 320L512 464L512 320L368.001 320Z" fill="var(--flag-palette-blue, #0052b4)"/>
<path d="M512 192L512 48.0005L368.001 192L512 192Z" fill="var(--flag-palette-blue, #0052b4)"/>
<path d="M288.001 224L224.001 288L224.001 512L288.001 512L288.001 288L512 288L512 224L288.001 224Z" fill="var(--flag-palette-bright-red, #d80027)"/>
<path d="M512 480L352.001 320L320.001 320L512 512L512 480Z" fill="var(--flag-palette-bright-red, #d80027)"/>
<path d="M32.0005 512L192.001 352L192.001 320L0.000518799 512L32.0005 512Z" fill="var(--flag-palette-bright-red, #d80027)"/>
</g>
<defs>
<clipPath id="clip0_53_7938">
<rect width="512" height="512" fill="white"/>
</clipPath>
</defs>
</svg>

<svg xmlns="http://www.w3.org/2000/svg" width="512" height="512" fill="none"><g clip-path="url(#a)"><path fill="var(--flag-palette-dark-red, #a2001d)" d="M-128 136h512v240h-512z"/><path fill="var(--flag-palette-dark-green, #496e2d)" d="M-128 344h512v168h-512z"/><path fill="#333" d="M-128 0h512v168h-512z"/><path fill="#EEE" fill-rule="evenodd" d="M384 160h-512v32h512zm-512 192h512v-32h-512z" clip-rule="evenodd"/><path fill="#EEE" d="m207.7 118.3-30.3-14L128 216.2 78.6 104.3l-30.3 14L109.6 256 48.3 393.7l30.3 14L128 295.8l49.4 111.9 30.3-14L146.4 256z"/><path fill="#EEE" d="M148.6 131.5a236 236 0 0 0-20.6-20.2s-8.9 7.4-20.6 20.2v249a236 236 0 0 0 20.6 20.2s8.9-7.4 20.6-20.2z"/><path fill="var(--flag-palette-dark-red, #a2001d)" d="M72.3 179.2v153.6a269 269 0 0 0 39 51.9V127.3c-11.4 12-26.6 30-39 52m111.4-.1a269 269 0 0 0-39-51.9v257.4c11.4-12 26.5-30 39-52z"/><path fill="#333" d="M183.7 179.2v153.6a158 158 0 0 0 22.2-76.8c0-28.2-9.7-54.5-22.2-76.8m-111.4 0v153.6A158 158 0 0 1 50.1 256c0-28.2 9.7-54.5 22.2-76.8"/><path fill="var(--flag-palette-dark-red, #a2001d)" d="M256 136h512v240H256z"/><path fill="var(--flag-palette-dark-green, #496e2d)" d="M256 344h512v168H256z"/><path fill="#333" d="M256 0h512v168H256z"/><path fill="#EEE" fill-rule="evenodd" d="M768 160H256v32h512zM256 352h512v-32H256z" clip-rule="evenodd"/><path fill="#EEE" d="m591.7 118.3-30.3-14L512 216.2l-49.4-111.9-30.3 14L493.6 256l-61.3 137.7 30.3 14L512 295.8l49.4 111.9 30.3-14L530.4 256z"/><path fill="#EEE" d="M532.6 131.5c-11.7-12.8-20.6-20.2-20.6-20.2s-8.9 7.4-20.6 20.2v249a236 236 0 0 0 20.6 20.2s8.9-7.4 20.6-20.2z"/><path fill="var(--flag-palette-dark-red, #a2001d)" d="M456.3 179.2v153.6a265 265 0 0 0 39 51.9V127.3c-11.4 12-26.6 30-39 52"/><path fill="#333" d="M456.3 179.2v153.6a158 158 0 0 1-22.2-76.8c0-28.2 9.7-54.5 22.2-76.8"/><path fill="#EEE" d="M512 0v512H16l176-176v-16l32-32h64v-64z"/><path fill="var(--flag-palette-blue, #0052b4)" d="M320 368v144h144zM48 512l144-144v144zm320-192 144 144V320zm144-128V48L368 192z"/><path fill="var(--flag-palette-bright-red, #d80027)" d="m288 224-64 64v224h64V288h224v-64z"/><path fill="var(--flag-palette-bright-red, #d80027)" d="M512 480 352 320h-32l192 192zM32 512l160-160v-32L0 512z"/></g><defs><clipPath id="a"><path fill="#fff" d="M0 0h512v512H0z"/></clipPath></defs></svg>
